X:1023
T:Rothemurches's Reel.
M:C
L:1/8
Q:1/2=104
Z:Jack Campin * www.campin.me.uk * 2009
K:D
A|(F>E`FD) F<AA2 |d>AB>A  d>A`B<d|TF>E```FD   F<AA2 |B>dA>d F<E```E:|
g|Tf2  e>f e>fe>B|d>ef>e  d>B`d>A| B/B/B b>a  f2 ed |B>dA>d F<E```E:|
a| f<a`a>b a>ba>e|f<bb>c' b>c'b>a| f>a```e>f  d>ef>d|f<ba>f e/e/e e:|
a| f2 Te>d e>fb2 |a<ff>e  d2  B>d| A>B```d>e Tf2 e>d|B>dA>d F<E```E:|

